X:1
T:Title
%%score [ 1 2 3 4 ]
L:1/8
Q:1/4=120
M:6/4
K:F
V:1 treble nm="MusicXML Part"
V:2 treble nm="MusicXML Part"
V:3 bass nm="MusicXML Part"
V:4 bass nm="MusicXML Part"
V:1
"^Es war ein König in Thule (1833)""^Sanft und frei, nicht schleppend" A2 | f4 f2 (e3 e) e2 | %2
w: 1. Es|war ein Kö- nig in|
w: 2. Es|ging ihm nichts * da-|
w: 3. Und|als er kam * zu|
w: 4. Er|sass beim Kö * nigs-|
w: 5. Dort|stand der a * lte|
w: 6. Er|sah ihn stür * zen,|
 d6 c4 c2 | %3
w: Thu- le, gar|
w: rü- ber, er|
w: ster- ben, zählt|
w: mah- le, die|
w: Ze- cher, trank|
w: trin- ken und|
 B4"^Musik: Carl Friedrich Zelter (1758-1832)\nSatz: Friedrich Silcher (1789-1860)\nText: J. W. von Goethe (1749-1832)" A2 G4 B2 | %4
w: treu bis an das|
w: leert' ihn je- den|
w: er sein' Städt' im|
w: Ri- tter um ihn|
w: letz- te Le- bens-|
w: sin- ken tief ins|
 A8 z2 e2 | f4 f2 (g3 g) g2 | a6 g4 (gg) | f4 d2 e4 ^c2 | (d4 c2 B4 G2 | !fermata!^F8) z2 |] %10
w: Grab, dem|1. ster- bend sei * ne|Buh- le ei- nen|gold- 'nen Be- cher|gab. * * *||
w: Schmaus, die|2. Au- gen gin- gen ihm|ü- ber, so *|oft er trank da-|raus. * * *||
w: Reich, liess|3. al- les sei * nen|Er- ben, den *|Be- cher nicht zu-|gleich. * * *||
w: her, in|4. hoh- er Vä * ter|Saa- le, dort *|auf dem Schloss am|Meer. * * *||
w: glut und|5. warf den heil' * gen|Be- cher hin *|un- ter in die|Flut. * * *||
w: Meer, die|6. Au- gen tä- ten ihm|sin- ken, trank nie|ei- nen Tro- pfen|mehr. * * *||
V:2
 A2 | d4 d2 (c3 c) c2 | B6 A4 A2 | G4 F2 E4 E2 | E8 z2 ^c2 | d4 d2 (e3 e) e2 | f6 d4 (dd) | %7
 d4 d2 B4 A2 | (A4 A2 B4 G2 | !fermata!^F8) z2 |] %10
V:3
 A,2 | A,4 A,2 (A,3 A,) G,2 | F,6 F,4 F,2 | D,4 D,2 D,4 D,2 | ^C,8 z2 A,2 | A,4 A,2 (C3 C) C2 | %6
w: 1. Es|war ein Kö- nig in|Thu- le, gar|treu bis an das|Grab, dem|1. ster- bend sei * ne|
w: 2. Es|ging ihm nichts * da-|rü- ber, er|leert' ihn je- den|Schmaus, die|2. Au- gen gin- gen ihm|
w: 3. Und|als er kam * zu|ster- ben, zählt|er sein' Städt' im|Reich, liess|3. al- les sei * nen|
w: 4. Er|sass beim Kö * nigs-|mah- le, die|Ri- tter um ihn|her, in|4. hoh- er Vä * ter|
w: 5. Dort|stand der a * lte|Ze- cher, trank|letz- te Le- bens-|glut und|5. warf den heil' * gen|
w: 6. Er|sah ihn stür * zen,|trin- ken und|sin- ken tief ins|Meer, die|6. Au- gen tä- ten ihm|
 C6 B,4 (B,B,) | A,4 F,2 G,4 E,2 | (F,4 ^F,2 G,4 B,2 | !fermata!A,8) z2 |] %10
w: Buh- le ei- nen|gold- 'nen Be- cher|gab. * * *||
w: ü- ber, so *|oft er trank da-|raus. * * *||
w: Er- ben, den *|Be- cher nicht zu-|gleich. * * *||
w: Saa- le, dort *|auf dem Schloss am|Meer. * * *||
w: Be- cher hin *|un- ter in die|Flut. * * *||
w: sin- ken, trank nie|ei- nen Tro- pfen|mehr. * * *||
V:4
 A,,2 | D,4 D,2 (A,,3 A,,) A,,2 | B,,6 F,,4 F,,2 | G,,4 A,,2 B,,4 G,,2 | A,,8 z2 A,,2 | %5
 D,4 D,2 (C,3 C,) C,2 | F,,6 G,,4 (G,,G,,) | A,,4 B,,2 G,,4 A,,2 | [D,,D,]12- | %9
 !fermata![D,,D,]8 z2 |] %10

